X:96
T:Stillman's Reel
C:Major Stillman
M:2/4
Q:1/4=100
L:1/16
%%staves (1 2)
K:D
V:1
%%MIDI channel 1
%%MIDI program 72
%%MIDI transpose 8
%%MIDI grace 1/8
%%MIDI ratio 3 1
AG|FAd2 d2cd|edcB A2AG|FAd2 d2cd|e2a2 a2AG|FAd2 d2cd|edcB A2A2|B2gf edce|d2f2d2::
f2|a2>f2 d2f2|edcB A2f2|a2>f2 gfed|c2e2 e2f2|a2>f2 d2f2|edcB A2A2|B2gf edce|d2f2d2:|
V:2
x2|x8|x8|x8|x8|x8|x8|x8|x6::x2|x8|x8|x8|x8|x8|x8|x8|x6:|
%%staves [1 2]
V:1
"2nd Fife"FE|DFAG FAGF|G2E2 F2FE|DFAG FAGF|Gcc2 c2E2|DFAG FAGF|"2nd and 3rd fife by N.Langer"G2E2 F2F2|G2Bd c2G2|F2A2F2::
A2|d2>A2 F2A2|E2G2 FEFA|d2>A2 B2G2|G2B2 B2A2|d2>A2 F2A2|E2G2 FDF2|G2Bd c2G2|F2A2F2:|
V:2
"3rd Fife"D2|A,DD2 D2EA|B,CDC D2DC|A,2DD D2EA|E2G2 G2E2|A,DD2 D2EA|B,CDC D2D2|E2GB AGEC|D2F2D2::
F2|F2>D2 A2d2|cBAE DFDF|F2>D2 G2E2|E2G2 G2F2|F2>D2 A2d2|cBAE D2FD|E2GB AGEC|D2F2D2:|
